img/secretService/secretService6.svg

<svg xmlns="http://www.w3.org/2000/svg" width="500" height="500" viewBox="0 0 500 500"><path d="M448.432 22.7C425.398.974 389.115 2.034 367.387 25.068c-21.726 23.033-20.67 59.313 2.36 81.042 23.034 21.728 59.316 20.67 81.048-2.36 21.728-23.032 20.672-59.32-2.363-81.05zM358.84 101.114L227.87 9.742c-11.39-7.947-27.064-5.155-35.014 6.235-7.946 11.392-5.155 27.067 6.236 35.014l88.804 61.956-77.75 84.36L83.78 67.416c-11.26-11.576-29.776-11.832-41.352-.568-11.576 11.26-11.832 29.776-.57 41.352L212.6 283.7l37.698 187.596c2.79 13.89 14.994 23.487 28.64 23.487 1.907 0 3.85-.188 5.792-.578 15.834-3.183 26.09-18.6 22.908-34.433L273.304 288.93c1.836-1.538 3.718-3.313 5.662-5.375l7.684-7.284a25.028 25.028 0 0 0 13.23 5.272l69.197 6.306a25.15 25.15 0 0 0 19.238-6.472 25.15 25.15 0 0 0 8.19-18.572V160.41c-.835-33.2-37.51-59.187-37.665-59.296zm-27.492 132.79l14.863-14.09v15.444l-14.862-1.354z"/></svg>

<?xml version="1.0" encoding="utf-8"?>
<!-- Generator: Adobe Illustrator 16.0.0, SVG Export Plug-In . SVG Version: 6.00 Build 0)  -->
<!DOCTYPE svg PUBLIC "-//W3C//DTD SVG 1.1//EN" "http://www.w3.org/Graphics/SVG/1.1/DTD/svg11.dtd">
<svg version="1.1" id="Layer_1" xmlns="http://www.w3.org/2000/svg" xmlns:xlink="http://www.w3.org/1999/xlink" x="0px" y="0px"
	 width="500px" height="500px" viewBox="0 0 500 500" enable-background="new 0 0 500 500" xml:space="preserve">
<g>
	<path d="M448.432,22.701c-23.034-21.728-59.317-20.668-81.045,2.366c-21.726,23.033-20.671,59.313,2.361,81.042
		c23.033,21.729,59.315,20.671,81.047-2.359C472.523,80.718,471.467,44.431,448.432,22.701z"/>
	<path d="M358.84,101.114L227.87,9.742c-11.39-7.947-27.064-5.155-35.014,6.235c-7.946,11.392-5.155,27.067,6.236,35.014
		l88.804,61.955l-77.75,84.36L83.78,67.416C72.519,55.84,54.004,55.584,42.428,66.848C30.852,78.109,30.596,96.624,41.859,108.2
		l170.738,175.5l37.699,187.596c2.791,13.891,14.994,23.487,28.64,23.487c1.907,0,3.849-0.188,5.792-0.578
		c15.834-3.183,26.091-18.599,22.908-34.433l-34.332-170.842c1.836-1.538,3.718-3.313,5.662-5.375l7.684-7.284
		c3.688,2.897,8.214,4.813,13.23,5.271l69.197,6.306c0.763,0.069,1.523,0.104,2.283,0.104c6.246,0,12.302-2.328,16.955-6.576
		c5.218-4.765,8.191-11.505,8.191-18.572V160.411C395.67,127.211,358.996,101.223,358.84,101.114z M331.348,233.904l14.863-14.09
		v15.444L331.348,233.904z"/>
</g>
</svg>
